VPTemplate/Content/StageSetup/luts/eotf_sRGB.spi1d
Version 1
From 0 1
Length 16385
Components 1
{
  0.000000000000000
  0.000004724083301
  0.000009448166602
  0.000014172249903
  0.000018896333204
  0.000023620416505
  0.000028344499807
  0.000033068583108
  0.000037792666409
  0.000042516749710
  0.000047240833011
  0.000051964916312
  0.000056688999613
  0.000061413082914
  0.000066137166215
  0.000070861249516
  0.000075585332817
  0.000080309416118
  0.000085033499420
  0.000089757582721
  0.000094481666022
  0.000099205749323
  0.000103929832624
  0.000108653915925
  0.000113377999226
  0.000118102082527
  0.000122826165828
  0.000127550249129
  0.000132274332430
  0.000136998415731
  0.000141722499033
  0.000146446582334
  0.000151170665635
  0.000155894748936
  0.000160618832237
  0.000165342915538
  0.000170066998839
  0.000174791082140
  0.000179515165441
  0.000184239248742
  0.000188963332043
  0.000193687415344
  0.000198411498646
  0.000203135581947
  0.000207859665248
  0.000212583748549
  0.000217307831850
  0.000222031915151
  0.000226755998452
  0.000231480081753
  0.000236204165054
  0.000240928248355
  0.000245652331656
  0.000250376414957
  0.000255100498259
  0.000259824581560
  0.000264548664861
  0.000269272748162
  0.000273996831463
  0.000278720914764
  0.000283444998065
  0.000288169081366
  0.000292893164667
  0.000297617247968
  0.000302341331269
  0.000307065414570
  0.000311789497872
  0.000316513581173
  0.000321237664474
  0.000325961747775
  0.000330685831076
  0.000335409914377
  0.000340133997678
  0.000344858080979
  0.000349582164280
  0.000354306247581
  0.000359030330882
  0.000363754414183
  0.000368478497485
  0.000373202580786
  0.000377926664087
  0.000382650747388
  0.000387374830689
  0.000392098913990
  0.000396822997291
  0.000401547080592
  0.000406271163893
  0.000410995247194
  0.000415719330495
  0.000420443413796
  0.000425167497098
  0.000429891580399
  0.000434615663700
  0.000439339747001
  0.000444063830302
  0.000448787913603
  0.000453511996904
  0.000458236080205
  0.000462960163506
  0.000467684246807
  0.000472408330108
  0.000477132413409
  0.000481856496711
  0.000486580580012
  0.000491304663313
  0.000496028746614
  0.000500752829915
  0.000505476913216
  0.000510200996517
  0.000514925079818
  0.000519649163119
  0.000524373246420
  0.000529097329721
  0.000533821413022
  0.000538545496324
  0.000543269579625
  0.000547993662926
  0.000552717746227
  0.000557441829528
  0.000562165912829
  0.000566889996130
  0.000571614079431
  0.000576338162732
  0.000581062246033
  0.000585786329334
  0.000590510412635
  0.000595234495937
  0.000599958579238
  0.000604682662539
  0.000609406745840
  0.000614130829141
  0.000618854912442
  0.000623578995743
  0.000628303079044
  0.000633027162345
  0.000637751245646
  0.000642475328947
  0.000647199412248
  0.000651923495550
  0.000656647578851
  0.000661371662152
  0.000666095745453
  0.000670819828754
  0.000675543912055
  0.000680267995356
  0.000684992078657
  0.000689716161958
  0.000694440245259
  0.000699164328560
  0.000703888411861
  0.000708612495163
  0.000713336578464
  0.000718060661765
  0.000722784745066
  0.000727508828367
  0.000732232911668
  0.000736956994969
  0.000741681078270
  0.000746405161571
  0.000751129244872
  0.000755853328173
  0.000760577411474
  0.000765301494776
  0.000770025578077
  0.000774749661378
  0.000779473744679
  0.000784197827980
  0.000788921911281
  0.000793645994582
  0.000798370077883
  0.000803094161184
  0.000807818244485
  0.000812542327786
  0.000817266411087
  0.000821990494389
  0.000826714577690
  0.000831438660991
  0.000836162744292
  0.000840886827593
  0.000845610910894
  0.000850334994195
  0.000855059077496
  0.000859783160797
  0.000864507244098
  0.000869231327399
  0.000873955410700
  0.000878679494002
  0.000883403577303
  0.000888127660604
  0.000892851743905
  0.000897575827206
  0.000902299910507
  0.000907023993808
  0.000911748077109
  0.000916472160410
  0.000921196243711
  0.000925920327012
  0.000930644410313
  0.000935368493615
  0.000940092576916
  0.000944816660217
  0.000949540743518
  0.000954264826819
  0.000958988910120
  0.000963712993421
  0.000968437076722
  0.000973161160023
  0.000977885243324
  0.000982609326625
  0.000987333409926
  0.000992057493228
  0.000996781576529
  0.001001505659830
  0.001006229743131
  0.001010953826432
  0.001015677909733
  0.001020401993034
  0.001025126076335
  0.001029850159636
  0.001034574242937
  0.001039298326238
  0.001044022409539
  0.001048746492841
  0.001053470576142
  0.001058194659443
  0.001062918742744
  0.001067642826045
  0.001072366909346
  0.001077090992647
  0.001081815075948
  0.001086539159249
  0.001091263242550
  0.001095987325851
  0.001100711409152
  0.001105435492454
  0.001110159575755
  0.001114883659056
  0.001119607742357
  0.001124331825658
  0.001129055908959
  0.001133779992260
  0.001138504075561
  0.001143228158862
  0.001147952242163
  0.001152676325464
  0.001157400408765
  0.001162124492067
  0.001166848575368
  0.001171572658669
  0.001176296741970
  0.001181020825271
  0.001185744908572
  0.001190468991873
  0.001195193075174
  0.001199917158475
  0.001204641241776
  0.001209365325077
  0.001214089408378
  0.001218813491680
  0.001223537574981
  0.001228261658282
  0.001232985741583
  0.001237709824884
  0.001242433908185
  0.001247157991486
  0.001251882074787
  0.001256606158088
  0.001261330241389
  0.001266054324690
  0.001270778407991
  0.001275502491293
  0.001280226574594
  0.001284950657895
  0.001289674741196
  0.001294398824497
  0.001299122907798
  0.001303846991099
  0.001308571074400
  0.001313295157701
  0.001318019241002
  0.001322743324303
  0.001327467407604
  0.001332191490906
  0.001336915574207
  0.001341639657508
  0.001346363740809
  0.001351087824110
  0.001355811907411
  0.001360535990712
  0.001365260074013
  0.001369984157314
  0.001374708240615
  0.001379432323916
  0.001384156407217
  0.001388880490519
  0.001393604573820
  0.001398328657121
  0.001403052740422
  0.001407776823723
  0.001412500907024
  0.001417224990325
  0.001421949073626
  0.001426673156927
  0.001431397240228
  0.001436121323529
  0.001440845406830
  0.001445569490132
  0.001450293573433
  0.001455017656734
  0.001459741740035
  0.001464465823336
  0.001469189906637
  0.001473913989938
  0.001478638073239
  0.001483362156540
  0.001488086239841
  0.001492810323142
  0.001497534406443
  0.001502258489745
  0.001506982573046
  0.001511706656347
  0.001516430739648
  0.001521154822949
  0.001525878906250
  0.001530602989551
  0.001535327072852
  0.001540051156153
  0.001544775239454
  0.001549499322755
  0.001554223406057
  0.001558947489358
  0.001563671572659
  0.001568395655960
  0.001573119739261
  0.001577843822562
  0.001582567905863
  0.001587291989164
  0.001592016072465
  0.001596740155766
  0.001601464239067
  0.001606188322368
  0.001610912405670
  0.001615636488971
  0.001620360572272
  0.001625084655573
  0.001629808738874
  0.001634532822175
  0.001639256905476
  0.001643980988777
  0.001648705072078
  0.001653429155379
  0.001658153238680
  0.001662877321981
  0.001667601405283
  0.001672325488584
  0.001677049571885
  0.001681773655186
  0.001686497738487
  0.001691221821788
  0.001695945905089
  0.001700669988390
  0.001705394071691
  0.001710118154992
  0.001714842238293
  0.001719566321594
  0.001724290404896
  0.001729014488197
  0.001733738571498
  0.001738462654799
  0.001743186738100
  0.001747910821401
  0.001752634904702
  0.001757358988003
  0.001762083071304
  0.001766807154605
  0.001771531237906
  0.001776255321207
  0.001780979404509
  0.001785703487810
  0.001790427571111
  0.001795151654412
  0.001799875737713
  0.001804599821014
  0.001809323904315
  0.001814047987616
  0.001818772070917
  0.001823496154218
  0.001828220237519
  0.001832944320820
  0.001837668404122
  0.001842392487423
  0.001847116570724
  0.001851840654025
  0.001856564737326
  0.001861288820627
  0.001866012903928
  0.001870736987229
  0.001875461070530
  0.001880185153831
  0.001884909237132
  0.001889633320433
  0.001894357403735
  0.001899081487036
  0.001903805570337
  0.001908529653638
  0.001913253736939
  0.001917977820240
  0.001922701903541
  0.001927425986842
  0.001932150070143
  0.001936874153444
  0.001941598236745
  0.001946322320046
  0.001951046403348
  0.001955770486649
  0.001960494569950
  0.001965218653251
  0.001969942736552
  0.001974666819853
  0.001979390903154
  0.001984114986455
  0.001988839069756
  0.001993563153057
  0.001998287236358
  0.002003011319659
  0.002007735402961
  0.002012459486262
  0.002017183569563
  0.002021907652864
  0.002026631736165
  0.002031355819466
  0.002036079902767
  0.002040803986068
  0.002045528069369
  0.002050252152670
  0.002054976235971
  0.002059700319272
  0.002064424402574
  0.002069148485875
  0.002073872569176
  0.002078596652477
  0.002083320735778
  0.002088044819079
  0.002092768902380
  0.002097492985681
  0.002102217068982
  0.002106941152283
  0.002111665235584
  0.002116389318885
  0.002121113402187
  0.002125837485488
  0.002130561568789
  0.002135285652090
  0.002140009735391
  0.002144733818692
  0.002149457901993
  0.002154181985294
  0.002158906068595
  0.002163630151896
  0.002168354235197
  0.002173078318498
  0.002177802401800
  0.002182526485101
  0.002187250568402
  0.002191974651703
  0.002196698735004
  0.002201422818305
  0.002206146901606
  0.002210870984907
  0.002215595068208
  0.002220319151509
  0.002225043234810
  0.002229767318111
  0.002234491401413
  0.002239215484714
  0.002243939568015
  0.002248663651316
  0.002253387734617
  0.002258111817918
  0.002262835901219
  0.002267559984520
  0.002272284067821
  0.002277008151122
  0.002281732234423
  0.002286456317724
  0.002291180401026
  0.002295904484327
  0.002300628567628
  0.002305352650929
  0.002310076734230
  0.002314800817531
  0.002319524900832
  0.002324248984133
  0.002328973067434
  0.002333697150735
  0.002338421234036
  0.002343145317337
  0.002347869400639
  0.002352593483940
  0.002357317567241
  0.002362041650542
  0.002366765733843
  0.002371489817144
  0.002376213900445
  0.002380937983746
  0.002385662067047
  0.002390386150348
  0.002395110233649
  0.002399834316950
  0.002404558400252
  0.002409282483553
  0.002414006566854
  0.002418730650155
  0.002423454733456
  0.002428178816757
  0.002432902900058
  0.002437626983359
  0.002442351066660
  0.002447075149961
  0.002451799233262
  0.002456523316563
  0.002461247399865
  0.002465971483166
  0.002470695566467
  0.002475419649768
  0.002480143733069
  0.002484867816370
  0.002489591899671
  0.002494315982972
  0.002499040066273
  0.002503764149574
  0.002508488232875
  0.002513212316176
  0.002517936399478
  0.002522660482779
  0.002527384566080
  0.002532108649381
  0.002536832732682
  0.002541556815983
  0.002546280899284
  0.002551004982585
  0.002555729065886
  0.002560453149187
  0.002565177232488
  0.002569901315789
  0.002574625399091
  0.002579349482392
  0.002584073565693
  0.002588797648994
  0.002593521732295
  0.002598245815596
  0.002602969898897
  0.002607693982198
  0.002612418065499
  0.002617142148800
  0.002621866232101
  0.002626590315402
  0.002631314398704
  0.002636038482005
  0.002640762565306
  0.002645486648607
  0.002650210731908
  0.002654934815209
  0.002659658898510
  0.002664382981811
  0.002669107065112
  0.002673831148413
  0.002678555231714
  0.002683279315015
  0.002688003398317
  0.002692727481618
  0.002697451564919
  0.002702175648220
  0.002706899731521
  0.002711623814822
  0.002716347898123
  0.002721071981424
  0.002725796064725
  0.002730520148026
  0.002735244231327
  0.002739968314628
  0.002744692397930
  0.002749416481231
  0.002754140564532
  0.002758864647833
  0.002763588731134
  0.002768312814435
  0.002773036897736
  0.002777760981037
  0.002782485064338
  0.002787209147639
  0.002791933230940
  0.002796657314241
  0.002801381397543
  0.002806105480844
  0.002810829564145
  0.002815553647446
  0.002820277730747
  0.002825001814048
  0.002829725897349
  0.002834449980650
  0.002839174063951
  0.002843898147252
  0.002848622230553
  0.002853346313854
  0.002858070397156
  0.002862794480457
  0.002867518563758
  0.002872242647059
  0.002876966730360
  0.002881690813661
  0.002886414896962
  0.002891138980263
  0.002895863063564
  0.002900587146865
  0.002905311230166
  0.002910035313467
  0.002914759396769
  0.002919483480070
  0.002924207563371
  0.002928931646672
  0.002933655729973
  0.002938379813274
  0.002943103896575
  0.002947827979876
  0.002952552063177
  0.002957276146478
  0.002962000229779
  0.002966724313080
  0.002971448396382
  0.002976172479683
  0.002980896562984
  0.002985620646285
  0.002990344729586
  0.002995068812887
  0.002999792896188
  0.003004516979489
  0.003009241062790
  0.003013965146091
  0.003018689229392
  0.003023413312693
  0.003028137395995
  0.003032861479296
  0.003037585562597
  0.003042309645898
  0.003047033729199
  0.003051757812500
  0.003056481895801
  0.003061205979102
  0.003065930062403
  0.003070654145704
  0.003075378229005
  0.003080102312307
  0.003084826395608
  0.003089550478909
  0.003094274562210
  0.003098998645511
  0.003103722728812
  0.003108446812113
  0.003113170895414
  0.003117894978715
  0.003122619062016
  0.003127343145317
  0.003132091268509
  0.003136899328932
  0.003141711692089
  0.003146528359080
  0.003151349331004
  0.003156174608961
  0.003161004194047
  0.003165838087361
  0.003170676290000
  0.003175518803061
  0.003180365627641
  0.003185216764835
  0.003190072215740
  0.003194931981450
  0.003199796063060
  0.003204664461666
  0.003209537178360
  0.003214414214236
  0.003219295570389
  0.003224181247909
  0.003229071247890
  0.003233965571424
  0.003238864219602
  0.003243767193515
  0.003248674494254
  0.003253586122909
  0.003258502080570
  0.003263422368327
  0.003268346987268
  0.003273275938483
  0.003278209223059
  0.003283146842084
  0.003288088796646
  0.003293035087831
  0.003297985716727
  0.003302940684419
  0.003307899991993
  0.003312863640535
  0.003317831631129
  0.003322803964861
  0.003327780642813
  0.003332761666070
  0.003337747035716
  0.003342736752833
  0.003347730818504
  0.003352729233810
  0.003357731999834
  0.003362739117657
  0.003367750588360
  0.003372766413022
  0.003377786592726
  0.003382811128549
  0.003387840021572
  0.003392873272873
  0.003397910883531
  0.003402952854624
  0.003407999187229
  0.003413049882424
  0.003418104941286
  0.003423164364892
  0.003428228154316
  0.003433296310636
  0.003438368834927
  0.003443445728263
  0.003448526991718
  0.003453612626368
  0.003458702633285
  0.003463797013543
  0.003468895768216
  0.003473998898375
  0.003479106405092
  0.003484218289440
  0.003489334552490
  0.003494455195313
  0.003499580218979
  0.003504709624558
  0.003509843413121
  0.003514981585736
  0.003520124143473
  0.003525271087401
  0.003530422418587
  0.003535578138099
  0.003540738247006
  0.003545902746373
  0.003551071637267
  0.003556244920756
  0.003561422597904
  0.003566604669778
  0.003571791137442
  0.003576982001961
  0.003582177264399
  0.003587376925821
  0.003592580987290
  0.003597789449869
  0.003603002314620
  0.003608219582608
  0.003613441254892
  0.003618667332536
  0.003623897816600
  0.003629132708145
  0.003634372008232
  0.003639615717920
  0.003644863838270
  0.003650116370341
  0.003655373315192
  0.003660634673882
  0.003665900447468
  0.003671170637008
  0.003676445243560
  0.003681724268182
  0.003687007711929
  0.003692295575858
  0.003697587861025
  0.003702884568485
  0.003708185699294
  0.003713491254507
  0.003718801235177
  0.003724115642359
  0.003729434477107
  0.003734757740474
  0.003740085433513
  0.003745417557275
  0.003750754112815
  0.003756095101183
  0.003761440523430
  0.003766790380608
  0.003772144673768
  0.003777503403959
  0.003782866572232
  0.003788234179636
  0.003793606227220
  0.003798982716034
  0.003804363647125
  0.003809749021542
  0.003815138840333
  0.003820533104544
  0.003825931815222
  0.003831334973415
  0.003836742580169
  0.003842154636528
  0.003847571143540
  0.003852992102248
  0.003858417513698
  0.003863847378934
  0.003869281699000
  0.003874720474940
  0.003880163707797
  0.003885611398613
  0.003891063548432
  0.003896520158295
  0.003901981229245
  0.003907446762323
  0.003912916758569
  0.003918391219025
  0.003923870144731
  0.003929353536727
  0.003934841396053
  0.003940333723747
  0.003945830520849
  0.003951331788398
  0.003956837527431
  0.003962347738986
  0.003967862424101
  0.003973381583813
  0.003978905219158
  0.003984433331173
  0.003989965920895
  0.003995502989357
  0.004001044537597
  0.004006590566649
  0.004012141077547
  0.004017696071326
  0.004023255549019
  0.004028819511660
  0.004034387960282
  0.004039960895918
  0.004045538319601
  0.004051120232362
  0.004056706635234
  0.004062297529247
  0.004067892915432
  0.004073492794821
  0.004079097168443
  0.004084706037329
  0.004090319402507
  0.004095937265008
  0.004101559625861
  0.004107186486093
  0.004112817846733
  0.004118453708808
  0.004124094073347
  0.004129738941377
  0.004135388313923
  0.004141042192013
  0.004146700576673
  0.004152363468928
  0.004158030869803
  0.004163702780325
  0.004169379201517
  0.004175060134403
  0.004180745580009
  0.004186435539356
  0.004192130013470
  0.004197829003372
  0.004203532510085
  0.004209240534631
  0.004214953078033
  0.004220670141312
  0.004226391725488
  0.004232117831584
  0.004237848460619
  0.004243583613613
  0.004249323291587
  0.004255067495560
  0.004260816226551
  0.004266569485578
  0.004272327273661
  0.004278089591817
  0.004283856441064
  0.004289627822420
  0.004295403736901
  0.004301184185524
  0.004306969169306
  0.004312758689262
  0.004318552746409
  0.004324351341762
  0.004330154476336
  0.004335962151145
  0.004341774367203
  0.004347591125526
  0.004353412427126
  0.004359238273017
  0.004365068664211
  0.004370903601722
  0.004376743086562
  0.004382587119742
  0.004388435702275
  0.004394288835171
  0.004400146519441
  0.004406008756097
  0.004411875546149
  0.004417746890605
  0.004423622790477
  0.004429503246773
  0.004435388260503
  0.004441277832674
  0.004447171964295
  0.004453070656374
  0.004458973909919
  0.004464881725937
  0.004470794105434
  0.004476711049419
  0.004482632558895
  0.004488558634871
  0.004494489278351
  0.004500424490340
  0.004506364271844
  0.004512308623866
  0.004518257547412
  0.004524211043486
  0.004530169113090
  0.004536131757229
  0.004542098976905
  0.004548070773120
  0.004554047146878
  0.004560028099179
  0.004566013631027
  0.004572003743421
  0.004577998437363
  0.004583997713854
  0.004590001573894
  0.004596010018483
  0.004602023048621
  0.004608040665306
  0.004614062869539
  0.004620089662317
  0.004626121044640
  0.004632157017504
  0.004638197581908
  0.004644242738850
  0.004650292489326
  0.004656346834333
  0.004662405774867
  0.004668469311925
  0.004674537446502
  0.004680610179594
  0.004686687512195
  0.004692769445302
  0.004698855979907
  0.004704947117006
  0.004711042857592
  0.004717143202659
  0.004723248153199
  0.004729357710207
  0.004735471874673
  0.004741590647591
  0.004747714029952
  0.004753842022749
  0.004759974626971
  0.004766111843611
  0.004772253673659
  0.004778400118105
  0.004784551177939
  0.004790706854151
  0.004796867147729
  0.004803032059665
  0.004809201590945
  0.004815375742558
  0.004821554515493
  0.004827737910737
  0.004833925929277
  0.004840118572102
  0.004846315840196
  0.004852517734548
  0.004858724256144
  0.004864935405968
  0.004871151185007
  0.004877371594246
  0.004883596634670
  0.004889826307263
  0.004896060613010
  0.004902299552895
  0.004908543127902
  0.004914791339013
  0.004921044187212
  0.004927301673482
  0.004933563798804
  0.004939830564162
  0.004946101970537
  0.004952378018910
  0.004958658710263
  0.004964944045576
  0.004971234025830
  0.004977528652006
  0.004983827925082
  0.004990131846040
  0.004996440415857
  0.005002753635514
  0.005009071505989
  0.005015394028260
  0.005021721203305
  0.005028053032102
  0.005034389515629
  0.005040730654862
  0.005047076450779
  0.005053426904356
  0.005059782016570
  0.005066141788395
  0.005072506220809
  0.005078875314786
  0.005085249071301
  0.005091627491329
  0.005098010575844
  0.005104398325820
  0.005110790742232
  0.005117187826052
  0.005123589578254
  0.005129995999811
  0.005136407091695
  0.005142822854879
  0.005149243290334
  0.005155668399033
  0.005162098181945
  0.005168532640044
  0.005174971774299
  0.005181415585680
  0.005187864075159
  0.005194317243704
  0.005200775092285
  0.005207237621872
  0.005213704833434
  0.005220176727939
  0.005226653306355
  0.005233134569651
  0.005239620518794
  0.005246111154751
  0.005252606478491
  0.005259106490979
  0.005265611193182
  0.005272120586067
  0.005278634670599
  0.005285153447745
  0.005291676918468
  0.005298205083735
  0.005304737944511
  0.005311275501759
  0.005317817756444
  0.005324364709529
  0.005330916361979
  0.005337472714757
  0.005344033768824
  0.005350599525146
  0.005357169984682
  0.005363745148397
  0.005370325017250
  0.005376909592205
  0.005383498874222
  0.005390092864262
  0.005396691563285
  0.005403294972253
  0.005409903092125
  0.005416515923860
  0.005423133468419
  0.005429755726760
  0.005436382699842
  0.005443014388624
  0.005449650794064
  0.005456291917120
  0.005462937758750
  0.005469588319910
  0.005476243601559
  0.005482903604653
  0.005489568330149
  0.005496237779002
  0.005502911952170
  0.005509590850606
  0.005516274475267
  0.005522962827108
  0.005529655907084
  0.005536353716148
  0.005543056255256
  0.005549763525362
  0.005556475527418
  0.005563192262378
  0.005569913731195
  0.005576639934823
  0.005583370874213
  0.005590106550317
  0.005596846964088
  0.005603592116478
  0.005610342008436
  0.005617096640916
  0.005623856014866
  0.005630620131239
  0.005637388990983
  0.005644162595049
  0.005650940944387
  0.005657724039946
  0.005664511882674
  0.005671304473521
  0.005678101813435
  0.005684903903364
  0.005691710744257
  0.005698522337060
  0.005705338682722
  0.005712159782189
  0.005718985636407
  0.005725816246324
  0.005732651612886
  0.005739491737039
  0.005746336619728
  0.005753186261898
  0.005760040664495
  0.005766899828464
  0.005773763754748
  0.005780632444293
  0.005787505898042
  0.005794384116939
  0.005801267101928
  0.005808154853950
  0.005815047373950
  0.005821944662870
  0.005828846721652
  0.005835753551238
  0.005842665152570
  0.005849581526589
  0.005856502674237
  0.005863428596453
  0.005870359294180
  0.005877294768357
  0.005884235019924
  0.005891180049822
  0.005898129858989
  0.005905084448364
  0.005912043818888
  0.005919007971498
  0.005925976907132
  0.005932950626730
  0.005939929131228
  0.005946912421564
  0.005953900498677
  0.005960893363501
  0.005967891016975
  0.005974893460035
  0.005981900693617
  0.005988912718657
  0.005995929536090
  0.006002951146852
  0.006009977551879
  0.006017008752104
  0.006024044748462
  0.006031085541888
  0.006038131133316
  0.006045181523679
  0.006052236713911
  0.006059296704945
  0.006066361497714
  0.006073431093150
  0.006080505492187
  0.006087584695755
  0.006094668704787
  0.006101757520215
  0.006108851142969
  0.006115949573981
  0.006123052814181
  0.006130160864500
  0.006137273725869
  0.006144391399216
  0.006151513885472
  0.006158641185566
  0.006165773300428
  0.006172910230985
  0.006180051978167
  0.006187198542903
  0.006194349926119
  0.006201506128744
  0.006208667151705
  0.006215832995930
  0.006223003662345
  0.006230179151878
  0.006237359465454
  0.006244544604000
  0.006251734568442
  0.006258929359705
  0.006266128978716
  0.006273333426398
  0.006280542703677
  0.006287756811477
  0.006294975750723
  0.006302199522339
  0.006309428127248
  0.006316661566374
  0.006323899840640
  0.006331142950970
