VPTemplate/Content/StageSetup/luts/UE_PQtoEGTC.cube
TITLE "Generated by Foundry::LUT"
LUT_3D_SIZE 9
0.000000 0.000000 0.000000
0.011459 0.000000 -0.000000
0.155549 0.000000 -0.000000
0.466491 0.000005 0.000877
0.905010 0.000022 0.026762
1.130228 0.310157 0.073073
1.150768 0.657918 0.195961
1.091792 0.899106 0.559853
1.047840 0.981310 0.842141
-0.000000 0.008526 -0.000000
0.009223 0.009124 -0.000000
0.158842 0.004664 -0.000000
0.470926 0.000005 0.000558
0.905255 0.036373 0.026072
1.129133 0.324569 0.070136
1.148986 0.662725 0.195961
1.091410 0.899600 0.560082
1.047436 0.981310 0.842141
-0.000002 0.175698 -0.000000
-0.000002 0.176541 -0.000000
0.181021 0.180912 -0.000000
0.504664 0.182704 -0.000000
0.908187 0.245913 0.017041
1.119953 0.417227 0.042563
1.140740 0.696222 0.196162
1.089497 0.904275 0.562814
1.047436 0.981970 0.842679
-0.000019 0.547099 -0.000000
-0.000019 0.547334 -0.000000
0.149070 0.548743 -0.000000
0.552013 0.553407 -0.000001
0.904765 0.579741 -0.000002
1.081800 0.650620 -0.000002
1.114397 0.789939 0.209936
1.082573 0.920751 0.574022
1.046224 0.984165 0.844292
-0.000059 0.898612 -0.000001
-0.000059 0.898364 -0.000001
0.248998 0.896631 -0.000001
0.586467 0.890153 -0.000002
0.870592 0.882093 0.033416
1.019076 0.887142 0.085735
1.068939 0.914739 0.306217
1.065789 0.956237 0.612229
1.042983 0.989843 0.850170
0.640146 1.013192 0.395535
0.643789 1.013192 0.395712
0.669489 1.012348 0.397823
0.748706 1.008537 0.406133
0.875217 1.002143 0.434791
0.979988 0.994831 0.497430
1.030297 0.993533 0.559396
1.042983 0.995263 0.704276
1.036052 1.000858 0.866455
0.889652 1.026989 0.759906
0.889902 1.026989 0.759906
0.892901 1.026575 0.760521
0.904030 1.025745 0.761751
0.932151 1.024083 0.767254
0.973566 1.020331 0.782868
1.008113 1.016560 0.813494
1.024499 1.014457 0.841063
1.027403 1.012348 0.903048
0.975122 1.022834 0.923857
0.975122 1.022834 0.923857
0.975344 1.022418 0.923857
0.976673 1.022418 0.924095
0.980649 1.022001 0.924571
0.990061 1.021166 0.926949
1.003426 1.019912 0.932857
1.014457 1.017819 0.944527
1.020331 1.016979 0.955326
1.003854 1.019076 0.986136
1.003854 1.019076 0.986136
1.003854 1.019076 0.986136
1.003854 1.019076 0.986136
1.004281 1.019076 0.986354
1.005560 1.019076 0.986573
1.008537 1.018657 0.987228
1.012770 1.018238 0.989408
1.016560 1.017399 0.993316
-0.000000 0.000000 0.007966
0.007140 0.000000 0.008311
0.155164 0.000000 0.011447
0.467354 0.000005 0.020170
0.904765 0.000022 0.061497
1.129863 0.310867 0.107662
1.150412 0.657918 0.219179
1.091410 0.898859 0.566882
1.047436 0.981090 0.843217
-0.000000 0.008921 0.009112
0.009266 0.009290 0.009303
0.159530 0.005511 0.012666
0.471210 0.000005 0.020922
0.905255 0.038714 0.061533
1.128768 0.325129 0.105716
1.148629 0.662725 0.219090
1.091410 0.899106 0.567106
1.047436 0.981310 0.843217
-0.000002 0.177045 0.009771
-0.000002 0.177937 0.010085
0.181837 0.182163 0.012340
0.503881 0.184371 0.019887
0.907943 0.247230 0.058472
1.119584 0.417723 0.088838
1.140380 0.696049 0.219621
1.089497 0.903784 0.570019
1.047436 0.981750 0.843486
-0.000019 0.547570 -0.000000
-0.000019 0.547804 -0.000000
0.150137 0.549212 -0.000000
0.552246 0.553639 -0.000000
0.904275 0.580178 0.019394
1.081414 0.650809 0.005511
1.114025 0.789646 0.232939
1.082187 0.920272 0.580832
1.046224 0.983727 0.845096
-0.000059 0.898117 0.022413
-0.000059 0.897870 0.022807
0.250525 0.896383 0.025974
0.586682 0.889902 0.044166
0.870335 0.881840 0.089383
1.019076 0.886638 0.123521
1.068939 0.914256 0.322993
1.065789 0.955554 0.618305
1.042983 0.989843 0.850967
0.640146 1.012770 0.408347
0.643789 1.012770 0.408687
0.669489 1.011503 0.410548
0.748392 1.008113 0.418712
0.874960 1.001287 0.446381
0.979768 0.994399 0.507004
1.029884 0.992883 0.566657
1.042983 0.994831 0.707836
1.036052 1.000858 0.867233
0.889401 1.026575 0.762058
0.889902 1.026575 0.762365
0.892901 1.026575 0.762672
0.904030 1.025745 0.764203
0.931915 1.023667 0.769077
0.973566 1.020331 0.784643
1.008113 1.016140 0.814902
1.024499 1.014035 0.842410
1.027403 1.012348 0.903293
0.975122 1.022418 0.924095
0.975122 1.022418 0.924095
0.975344 1.022418 0.924095
0.976673 1.022418 0.924333
0.980649 1.022001 0.924810
0.989843 1.021166 0.927186
1.003426 1.019912 0.933092
1.014457 1.017819 0.944759
1.020331 1.016979 0.955326
1.003854 1.019076 0.986136
1.003854 1.019076 0.986136
1.003854 1.019076 0.986136
1.003854 1.019076 0.986354
1.004281 1.019076 0.986354
1.005560 1.019076 0.986573
1.008537 1.018657 0.987228
1.012770 1.018238 0.989408
1.016560 1.017399 0.993533
-0.000001 0.000000 0.168380
0.001620 0.000000 0.168910
0.159530 0.000001 0.172742
0.481028 0.000005 0.181184
0.906478 0.007405 0.218825
1.128037 0.313571 0.270096
1.147557 0.656802 0.353739
1.089880 0.895638 0.617701
1.047032 0.980429 0.850436
-0.000001 0.000564 0.170488
0.003099 0.000706 0.171011
0.164623 0.000137 0.174340
0.482962 0.000005 0.182758
0.906478 0.047135 0.219709
1.126939 0.327915 0.269678
1.146485 0.661620 0.353941
1.089497 0.896631 0.617903
1.047032 0.980649 0.850702
-0.000002 0.178214 0.180145
-0.000002 0.178270 0.179816
0.179431 0.180036 0.180145
0.499284 0.191139 0.192114
0.906478 0.253396 0.225450
1.116995 0.420027 0.265946
1.138214 0.694319 0.354951
1.087964 0.900833 0.619913
1.047032 0.981090 0.850967
-0.000021 0.549914 0.203418
-0.000021 0.550148 0.203802
0.157710 0.551548 0.206374
0.553639 0.555720 0.216954
0.900094 0.582356 0.238965
1.079089 0.650620 0.251814
1.112164 0.787003 0.365541
1.081027 0.917631 0.628659
1.045820 0.983068 0.852294
-0.000061 0.895390 0.270236
-0.000061 0.895141 0.270375
0.261936 0.893399 0.271694
0.589044 0.887142 0.277844
0.868268 0.878791 0.295404
1.016560 0.883612 0.309207
1.066972 0.910621 0.428289
1.064605 0.953042 0.658289
1.042577 0.989191 0.857575
0.640531 1.008962 0.492084
0.644171 1.008962 0.492353
0.669489 1.008113 0.493829
0.748077 1.004707 0.500076
0.873422 0.998066 0.522014
0.977780 0.990930 0.569796
1.028645 0.990061 0.616288
1.041765 0.993316 0.731484
1.035642 1.000429 0.872652
0.889150 1.025330 0.778406
0.889401 1.025330 0.778406
0.892402 1.024915 0.778704
0.903539 1.024499 0.779897
0.931208 1.022418 0.784643
0.973121 1.019076 0.798085
1.007688 1.015298 0.825220
1.024083 1.013614 0.849638
1.026989 1.011925 0.906723
0.974900 1.022418 0.925999
0.974900 1.022418 0.925999
0.975344 1.022418 0.925999
0.976452 1.022418 0.926236
0.980649 1.022001 0.927186
0.989843 1.021166 0.929081
1.003426 1.019912 0.934737
1.014457 1.017819 0.946377
1.020331 1.016979 0.956465
1.003854 1.019076 0.986573
1.003854 1.019076 0.986573
1.003854 1.019076 0.986573
1.003854 1.019076 0.986573
1.004281 1.019076 0.986573
1.005560 1.018657 0.986791
1.008537 1.018657 0.987446
1.012770 1.018238 0.989408
1.016560 1.017399 0.993533
-0.000008 0.000002 0.525744
-0.000008 0.000002 0.525867
0.157014 0.000003 0.527596
0.524504 0.000009 0.534925
0.922425 0.000026 0.558480
1.118845 0.310749 0.603798
1.137491 0.650432 0.644171
1.084502 0.887393 0.746503
1.045820 0.978222 0.876495
-0.000008 0.000002 0.526609
-0.000008 0.000002 0.526856
0.160958 0.000003 0.528581
0.526980 0.000009 0.535651
0.921230 0.017521 0.559167
1.116995 0.325465 0.603798
1.136406 0.654936 0.644171
1.084502 0.887896 0.746818
1.045820 0.978222 0.876495
-0.000011 0.153356 0.532983
-0.000011 0.154327 0.533348
0.176317 0.159842 0.534925
0.540458 0.166721 0.541652
0.914498 0.248001 0.563495
1.107305 0.418548 0.603798
1.128768 0.686465 0.644171
1.082573 0.892652 0.747763
1.045010 0.978664 0.876751
-0.000030 0.552013 0.552478
-0.000030 0.552246 0.552478
0.178103 0.553175 0.553407
0.556642 0.557102 0.557332
0.883106 0.584956 0.576890
1.068152 0.644934 0.602760
1.103548 0.776012 0.646837
1.075979 0.909162 0.750901
1.044200 0.980869 0.877772
0.104778 0.881586 0.603383
0.143756 0.881333 0.603383
0.323444 0.879300 0.604420
0.604627 0.872909 0.608135
0.860461 0.865936 0.618506
1.006837 0.871108 0.625496
1.059851 0.898364 0.667488
1.060248 0.945453 0.763591
1.041358 0.987010 0.881333
0.646267 0.996989 0.691714
0.649677 0.996773 0.691714
0.673650 0.995911 0.692410
0.748077 0.992667 0.695185
0.869819 0.986573 0.704446
0.972454 0.980869 0.724807
1.023667 0.981310 0.743023
1.039321 0.987446 0.800104
1.034822 0.998496 0.892402
0.888398 1.021166 0.827980
0.888649 1.021166 0.828256
0.891653 1.020748 0.828256
0.902556 1.020331 0.829081
0.929791 1.018238 0.832098
0.971562 1.015298 0.840793
1.005986 1.012348 0.858888
1.022834 1.011080 0.875472
1.026575 1.011080 0.918112
0.974455 1.021583 0.934268
0.974455 1.021583 0.934268
0.975122 1.021166 0.934268
0.976230 1.021166 0.934268
0.980208 1.021166 0.934972
0.989626 1.020331 0.936612
1.002999 1.018657 0.941511
1.014457 1.017399 0.951209
1.019912 1.016560 0.959872
1.003426 1.019076 0.987228
1.003426 1.019076 0.987228
1.003854 1.019076 0.987228
1.003854 1.019076 0.987446
1.004281 1.018657 0.987446
1.005560 1.018657 0.987665
1.008537 1.018657 0.988319
1.012770 1.018238 0.990279
1.016560 1.017399 0.994182
0.007356 0.067237 0.858100
0.046737 0.068259 0.858100
0.243020 0.074759 0.858626
0.573800 0.093011 0.859151
0.934033 0.192063 0.863334
1.101286 0.391626 0.877517
1.116253 0.671484 0.878791
1.075590 0.880317 0.888900
1.042983 0.973789 0.925761
0.007017 0.095703 0.858100
0.046804 0.096518 0.858100
0.244119 0.101625 0.858626
0.574464 0.116683 0.859151
0.933092 0.216865 0.863334
1.100152 0.402696 0.877261
1.115140 0.675090 0.878536
1.075590 0.880825 0.888900
1.042983 0.974011 0.925761
0.000612 0.274174 0.857575
0.041664 0.274653 0.857575
0.249305 0.278518 0.857838
0.578208 0.290459 0.858888
0.925999 0.348532 0.863074
1.089880 0.476011 0.876240
1.108803 0.700178 0.877772
1.074030 0.884874 0.888900
1.042577 0.974233 0.925761
-0.000052 0.597111 0.855995
0.004143 0.597111 0.855995
0.247230 0.597532 0.856259
0.578208 0.598792 0.857575
0.895390 0.613451 0.862030
1.052265 0.661988 0.871623
1.087580 0.774812 0.875217
1.067759 0.900833 0.888900
1.041358 0.976452 0.925999
0.340275 0.867492 0.859151
0.355655 0.867233 0.859151
0.449107 0.865416 0.858888
0.653627 0.859413 0.857312
0.855468 0.855468 0.856259
0.988755 0.862030 0.865936
1.049049 0.886387 0.872909
1.053468 0.935910 0.890153
1.038913 0.982629 0.927660
0.695358 0.979988 0.873422
0.697773 0.979988 0.873422
0.715554 0.979106 0.873679
0.773609 0.976452 0.873935
0.874192 0.971562 0.875984
0.965516 0.967985 0.880571
1.016140 0.969552 0.883864
1.034412 0.978664 0.898117
1.032768 0.994831 0.932151
0.889652 1.013192 0.906723
0.890153 1.013192 0.906723
0.892901 1.013192 0.906967
0.903048 1.012348 0.907211
0.929081 1.011080 0.908187
0.968881 1.008537 0.911592
1.002999 1.005986 0.918352
1.020331 1.005986 0.924333
1.025330 1.008113 0.944296
0.974011 1.019076 0.953499
0.974011 1.019076 0.953499
0.974233 1.019076 0.953499
0.975787 1.019076 0.953728
0.979768 1.018657 0.953956
0.988973 1.018238 0.954870
1.002143 1.016979 0.958057
1.013614 1.016140 0.963940
1.019076 1.015719 0.969552
1.003426 1.018657 0.990279
1.003426 1.018657 0.990279
1.003426 1.018657 0.990496
1.003854 1.018657 0.990496
1.004281 1.018657 0.990496
1.005134 1.018657 0.990496
1.008113 1.018238 0.990930
1.012770 1.017819 0.992450
1.016560 1.017399 0.995911
0.427167 0.579303 0.977559
0.436671 0.579303 0.977559
0.500735 0.580178 0.977338
0.678671 0.584091 0.977338
0.906967 0.605248 0.977780
1.056666 0.647596 0.980208
1.086427 0.757435 0.976895
1.063815 0.891403 0.972008
1.039321 0.971116 0.974900
0.427006 0.585173 0.977338
0.436358 0.585388 0.977338
0.500471 0.586251 0.977338
0.678135 0.589686 0.977116
0.905989 0.610187 0.977559
1.055867 0.651374 0.980208
1.086043 0.759289 0.976673
1.063419 0.891653 0.972008
1.038913 0.971116 0.974900
0.424426 0.627673 0.976230
0.433847 0.627673 0.976230
0.497828 0.627870 0.976230
0.674010 0.630232 0.976230
0.899847 0.644553 0.976895
1.049452 0.677599 0.979106
1.082187 0.772404 0.976230
1.061835 0.894893 0.971785
1.038913 0.971562 0.974900
0.412901 0.744291 0.973121
0.422640 0.743974 0.973121
0.487073 0.743340 0.973344
0.659957 0.741116 0.973566
0.880825 0.742388 0.974455
1.027817 0.756816 0.976009
1.067759 0.816587 0.973789
1.057463 0.906967 0.971339
1.038097 0.973566 0.974900
0.380900 0.891153 0.970893
0.392162 0.890903 0.970669
0.464760 0.889401 0.970669
0.640338 0.884117 0.970669
0.851233 0.876495 0.970446
0.988755 0.875728 0.969776
1.038913 0.894395 0.969776
1.045820 0.935441 0.969776
1.035232 0.979106 0.974900
0.764509 0.971339 0.965066
0.766036 0.971339 0.965066
0.777808 0.970669 0.965066
0.818547 0.968657 0.964616
0.893399 0.964616 0.963940
0.963038 0.963038 0.963264
1.008537 0.965516 0.966639
1.029471 0.973566 0.969105
1.030297 0.990713 0.975344
0.907211 1.005560 0.969329
0.907455 1.005560 0.969329
0.909405 1.005560 0.969329
0.917391 1.005134 0.969329
0.937548 1.004281 0.969552
0.970223 1.002143 0.970223
1.000000 1.000858 0.971785
1.017399 1.001287 0.972676
1.023251 1.004707 0.977780
0.974455 1.016140 0.980649
0.974455 1.016140 0.980649
0.975122 1.016140 0.980649
0.976230 1.016140 0.980649
0.979988 1.016140 0.980649
0.988319 1.015298 0.981090
1.001287 1.014457 0.982189
1.012770 1.013614 0.984603
1.018238 1.013614 0.986354
1.003426 1.017819 0.996342
1.003426 1.017819 0.996342
1.003426 1.017819 0.996342
1.003426 1.017819 0.996342
1.003854 1.017819 0.996558
1.005134 1.017819 0.996558
1.008113 1.017399 0.996989
1.012348 1.017399 0.998066
1.016140 1.016979 1.000000
0.677241 0.864116 1.008962
0.679919 0.864116 1.008962
0.699664 0.863074 1.008962
0.765426 0.861507 1.008962
0.886387 0.858626 1.008962
0.996126 0.860199 1.008537
1.044605 0.879046 1.007263
1.047840 0.924810 1.004281
1.034001 0.975122 1.002571
0.676704 0.864896 1.008962
0.679206 0.864636 1.008962
0.699149 0.864376 1.008962
0.765120 0.862291 1.008962
0.886135 0.859413 1.008962
0.995911 0.860984 1.008537
1.044605 0.879809 1.007263
1.047840 0.925048 1.004281
1.034001 0.975122 1.002571
0.672026 0.871108 1.008962
0.674730 0.870850 1.008962
0.695185 0.870335 1.008962
0.762365 0.868009 1.008537
0.884370 0.864896 1.008537
0.994182 0.865936 1.008113
1.042983 0.883612 1.006837
1.047032 0.926711 1.004281
1.034001 0.975344 1.002143
0.658289 0.892652 1.008113
0.661435 0.892402 1.008113
0.683290 0.891903 1.008113
0.754333 0.889150 1.007688
0.878791 0.884622 1.007688
0.987665 0.883864 1.007263
1.038097 0.897374 1.005986
1.044200 0.933092 1.003854
1.033591 0.976895 1.002143
0.673650 0.934972 1.005560
0.676346 0.934972 1.005560
0.696222 0.934268 1.005560
0.760829 0.931679 1.005134
0.872909 0.926711 1.005134
0.974011 0.923380 1.004707
1.025330 0.928845 1.004281
1.037279 0.949832 1.002999
1.031534 0.981090 1.002143
0.782275 0.978885 1.002143
0.783460 0.978885 1.002143
0.791985 0.978443 1.002143
0.822448 0.977116 1.002143
0.887142 0.973789 1.002143
0.961457 0.970446 1.001715
1.008113 0.970223 1.001287
1.025330 0.976673 1.001287
1.026989 0.990496 1.001287
0.930736 1.002571 0.999785
0.930972 1.002571 0.999785
0.932386 1.002143 0.999785
0.937782 1.002143 0.999785
0.952126 1.000858 0.999785
0.976673 0.999785 0.999356
0.999141 0.999356 0.999141
1.014457 1.000000 1.000429
1.021583 1.002999 1.001287
0.980429 1.013614 1.001287
0.980429 1.013614 1.001287
0.980649 1.013614 1.001287
0.981530 1.013192 1.001287
0.984603 1.013192 1.001287
0.991148 1.012770 1.001287
1.001715 1.012348 1.001287
1.011503 1.011925 1.002143
1.017399 1.011925 1.002571
1.003426 1.016979 1.005134
1.003426 1.016979 1.005134
1.003426 1.016979 1.005134
1.003426 1.016979 1.005134
1.004281 1.016979 1.005134
1.005134 1.016979 1.005134
1.007688 1.016560 1.005134
1.011925 1.016560 1.005560
1.015719 1.016140 1.006412
0.864896 0.967088 1.014878
0.865416 0.967088 1.014878
0.869560 0.966864 1.014878
0.884622 0.966190 1.014878
0.921708 0.964165 1.014878
0.972899 0.962135 1.014878
1.011925 0.962812 1.014457
1.028645 0.969776 1.014035
1.028645 0.986354 1.013192
0.864896 0.967313 1.014878
0.865416 0.967088 1.014878
0.869560 0.966864 1.014878
0.884622 0.966190 1.014878
0.921708 0.964391 1.014878
0.972899 0.962361 1.014878
1.011925 0.962812 1.014457
1.028645 0.969776 1.014035
1.028645 0.986354 1.013192
0.865416 0.967761 1.014878
0.865936 0.967761 1.014878
0.870077 0.967537 1.014878
0.884874 0.966864 1.014878
0.921708 0.964841 1.014878
0.972899 0.963038 1.014878
1.011925 0.963489 1.014457
1.027817 0.970446 1.014035
1.028645 0.986573 1.013192
0.867751 0.970446 1.014878
0.868009 0.970446 1.014878
0.872137 0.970223 1.014878
0.886638 0.969329 1.014878
0.922186 0.967761 1.014878
0.972231 0.965741 1.014457
1.011080 0.965965 1.014457
1.027403 0.972008 1.014035
1.027817 0.987446 1.013192
0.875472 0.977559 1.014457
0.875984 0.977559 1.014457
0.879300 0.977338 1.014457
0.892152 0.976673 1.014457
0.923857 0.975122 1.014457
0.970669 0.972899 1.014035
1.008113 0.972676 1.014035
1.025330 0.977338 1.013614
1.026575 0.989843 1.012770
0.897127 0.990930 1.013192
0.897374 0.990930 1.013192
0.899600 0.990930 1.013192
0.908675 0.990496 1.013192
0.931915 0.989191 1.013192
0.969105 0.987228 1.013192
1.002999 0.986136 1.013192
1.020331 0.987883 1.012770
1.024083 0.995263 1.012348
0.937080 1.005134 1.012348
0.937314 1.005134 1.012348
0.938016 1.004707 1.012348
0.941976 1.004707 1.012348
0.952813 1.003854 1.012348
0.974233 1.002999 1.012348
0.998711 1.001287 1.011925
1.014457 1.001287 1.011925
1.020331 1.003854 1.011925
0.988973 1.012348 1.011503
0.988973 1.012348 1.011503
0.989191 1.012348 1.011503
0.989626 1.012348 1.011503
0.991365 1.012348 1.011503
0.996126 1.011925 1.011503
1.003854 1.011503 1.011080
1.011503 1.011080 1.011080
1.016560 1.011503 1.011503
1.005134 1.016140 1.011925
1.005134 1.016140 1.011925
1.005134 1.016140 1.011925
1.005560 1.016140 1.011925
1.005560 1.016140 1.011925
1.006837 1.016140 1.011925
1.008537 1.015719 1.011925
1.012348 1.015719 1.011925
1.015298 1.015298 1.012348
0.966639 1.000858 1.016560
0.966639 1.000858 1.016560
0.967088 1.000858 1.016560
0.968657 1.000858 1.016560
0.974233 1.000429 1.016560
0.986136 1.000000 1.016560
1.002571 0.999356 1.016560
1.015719 0.999571 1.016140
1.021166 1.001715 1.016140
0.966639 1.000858 1.016560
0.966639 1.000858 1.016560
0.967088 1.000858 1.016560
0.968657 1.000858 1.016560
0.974233 1.000429 1.016560
0.986136 1.000000 1.016560
1.002571 0.999356 1.016560
1.015719 0.999571 1.016140
1.021166 1.001715 1.016140
0.966639 1.000858 1.016560
0.966639 1.000858 1.016560
0.967088 1.000858 1.016560
0.968881 1.000858 1.016560
0.974233 1.000429 1.016560
0.986136 1.000000 1.016560
1.002571 0.999356 1.016560
1.015719 0.999571 1.016140
1.021166 1.002143 1.016140
0.966864 1.001287 1.016560
0.966864 1.001287 1.016560
0.967313 1.001287 1.016560
0.969105 1.001287 1.016560
0.974233 1.000858 1.016560
0.986136 1.000429 1.016560
1.002571 0.999571 1.016560
1.015298 0.999785 1.016140
1.020748 1.002143 1.016140
0.967761 1.002143 1.016560
0.967761 1.002143 1.016560
0.968209 1.002143 1.016560
0.969776 1.002143 1.016560
0.975122 1.002143 1.016560
0.986354 1.001287 1.016560
1.002571 1.000429 1.016140
1.014878 1.000429 1.016140
1.020748 1.002571 1.016140
0.970669 1.004707 1.016140
0.970669 1.004707 1.016140
0.970893 1.004707 1.016140
0.972454 1.004281 1.016140
0.976673 1.004281 1.016140
0.987010 1.003426 1.016140
1.001715 1.002999 1.016140
1.014035 1.002999 1.016140
1.019912 1.004281 1.016140
0.977559 1.008537 1.016140
0.977559 1.008537 1.016140
0.978001 1.008537 1.016140
0.978885 1.008537 1.016140
0.981970 1.008537 1.016140
0.989626 1.008113 1.015719
1.001287 1.007263 1.015719
1.012348 1.007263 1.015719
1.018238 1.007688 1.015719
0.990930 1.013192 1.015719
0.990930 1.013192 1.015719
0.990930 1.013192 1.015719
0.991365 1.013192 1.015719
0.992667 1.013192 1.015719
0.996342 1.012770 1.015719
1.002999 1.012348 1.015719
1.011080 1.012348 1.015719
1.016560 1.011925 1.015298
1.008113 1.015719 1.014878
1.008113 1.015719 1.014878
1.008113 1.015719 1.014878
1.008113 1.015719 1.014878
1.008537 1.015719 1.014878
1.008962 1.015719 1.014878
1.010233 1.015298 1.014878
1.012770 1.015298 1.014878
1.015298 1.014878 1.014878
