VPTemplate/Content/StageSetup/luts/UE_PQtoEGTC.cube
TITLE "Generated by Foundry::LUT"
LUT_3D_SIZE 5
0.000000 0.000000 0.000000
0.155549 0.000000 -0.000000
0.905010 0.000022 0.026762
1.150768 0.657918 0.195961
1.047840 0.981310 0.842141
-0.000002 0.175698 -0.000000
0.181021 0.180912 -0.000000
0.908187 0.245913 0.017041
1.140740 0.696222 0.196162
1.047436 0.981970 0.842679
-0.000059 0.898612 -0.000001
0.248998 0.896631 -0.000001
0.870592 0.882093 0.033416
1.068939 0.914739 0.306217
1.042983 0.989843 0.850170
0.889652 1.026989 0.759906
0.892901 1.026575 0.760521
0.932151 1.024083 0.767254
1.008113 1.016560 0.813494
1.027403 1.012348 0.903048
1.003854 1.019076 0.986136
1.003854 1.019076 0.986136
1.004281 1.019076 0.986354
1.008537 1.018657 0.987228
1.016560 1.017399 0.993316
-0.000001 0.000000 0.168380
0.159530 0.000001 0.172742
0.906478 0.007405 0.218825
1.147557 0.656802 0.353739
1.047032 0.980429 0.850436
-0.000002 0.178214 0.180145
0.179431 0.180036 0.180145
0.906478 0.253396 0.225450
1.138214 0.694319 0.354951
1.047032 0.981090 0.850967
-0.000061 0.895390 0.270236
0.261936 0.893399 0.271694
0.868268 0.878791 0.295404
1.066972 0.910621 0.428289
1.042577 0.989191 0.857575
0.889150 1.025330 0.778406
0.892402 1.024915 0.778704
0.931208 1.022418 0.784643
1.007688 1.015298 0.825220
1.026989 1.011925 0.906723
1.003854 1.019076 0.986573
1.003854 1.019076 0.986573
1.004281 1.019076 0.986573
1.008537 1.018657 0.987446
1.016560 1.017399 0.993533
0.007356 0.067237 0.858100
0.243020 0.074759 0.858626
0.934033 0.192063 0.863334
1.116253 0.671484 0.878791
1.042983 0.973789 0.925761
0.000612 0.274174 0.857575
0.249305 0.278518 0.857838
0.925999 0.348532 0.863074
1.108803 0.700178 0.877772
1.042577 0.974233 0.925761
0.340275 0.867492 0.859151
0.449107 0.865416 0.858888
0.855468 0.855468 0.856259
1.049049 0.886387 0.872909
1.038913 0.982629 0.927660
0.889652 1.013192 0.906723
0.892901 1.013192 0.906967
0.929081 1.011080 0.908187
1.002999 1.005986 0.918352
1.025330 1.008113 0.944296
1.003426 1.018657 0.990279
1.003426 1.018657 0.990496
1.004281 1.018657 0.990496
1.008113 1.018238 0.990930
1.016560 1.017399 0.995911
0.677241 0.864116 1.008962
0.699664 0.863074 1.008962
0.886387 0.858626 1.008962
1.044605 0.879046 1.007263
1.034001 0.975122 1.002571
0.672026 0.871108 1.008962
0.695185 0.870335 1.008962
0.884370 0.864896 1.008537
1.042983 0.883612 1.006837
1.034001 0.975344 1.002143
0.673650 0.934972 1.005560
0.696222 0.934268 1.005560
0.872909 0.926711 1.005134
1.025330 0.928845 1.004281
1.031534 0.981090 1.002143
0.930736 1.002571 0.999785
0.932386 1.002143 0.999785
0.952126 1.000858 0.999785
0.999141 0.999356 0.999141
1.021583 1.002999 1.001287
1.003426 1.016979 1.005134
1.003426 1.016979 1.005134
1.004281 1.016979 1.005134
1.007688 1.016560 1.005134
1.015719 1.016140 1.006412
0.966639 1.000858 1.016560
0.967088 1.000858 1.016560
0.974233 1.000429 1.016560
1.002571 0.999356 1.016560
1.021166 1.001715 1.016140
0.966639 1.000858 1.016560
0.967088 1.000858 1.016560
0.974233 1.000429 1.016560
1.002571 0.999356 1.016560
1.021166 1.002143 1.016140
0.967761 1.002143 1.016560
0.968209 1.002143 1.016560
0.975122 1.002143 1.016560
1.002571 1.000429 1.016140
1.020748 1.002571 1.016140
0.977559 1.008537 1.016140
0.978001 1.008537 1.016140
0.981970 1.008537 1.016140
1.001287 1.007263 1.015719
1.018238 1.007688 1.015719
1.008113 1.015719 1.014878
1.008113 1.015719 1.014878
1.008537 1.015719 1.014878
1.010233 1.015298 1.014878
1.015298 1.014878 1.014878
