VPTemplate/Content/StageSetup/luts/UE_PQtoEGTC.cube
TITLE "Generated by Foundry::LUT"
LUT_3D_SIZE 33
0.000000 0.000000 0.000000
0.000042 0.000000 0.000000
0.000588 0.000000 -0.000000
0.003157 0.000000 -0.000000
0.011459 0.000000 -0.000000
0.033293 0.000000 -0.000000
0.072040 0.000000 -0.000000
0.109802 0.000000 -0.000000
0.155549 0.000000 -0.000000
0.213796 0.000001 -0.000000
0.286457 0.000002 0.000071
0.370077 0.000002 0.000293
0.466491 0.000005 0.000877
0.575348 0.000007 0.002336
0.691888 0.000011 0.005816
0.805838 0.000017 0.013184
0.905010 0.000022 0.026762
0.984384 0.088947 0.046826
1.046224 0.184959 0.065156
1.094081 0.254519 0.075168
1.130228 0.310157 0.073073
1.153257 0.369694 0.065436
1.163141 0.453904 0.078981
1.161033 0.557332 0.127493
1.150768 0.657918 0.195961
1.136406 0.741753 0.276695
1.121429 0.808116 0.366900
1.106180 0.859675 0.462876
1.091792 0.899106 0.559853
1.077924 0.928845 0.651185
1.066184 0.951668 0.728400
1.055867 0.968433 0.790817
1.047840 0.981310 0.842141
0.000000 0.000029 0.000000
0.000032 0.000031 0.000000
0.000512 0.000017 -0.000000
0.003076 0.000002 -0.000000
0.011391 0.000000 -0.000000
0.033268 0.000000 -0.000000
0.072040 0.000000 -0.000000
0.109802 0.000000 -0.000000
0.155677 0.000000 -0.000000
0.213978 0.000001 -0.000000
0.286717 0.000002 0.000069
0.370269 0.000002 0.000287
0.466635 0.000005 0.000869
0.575348 0.000007 0.002326
0.691888 0.000011 0.005803
0.805838 0.000017 0.013172
0.905010 0.000022 0.026738
0.984384 0.089816 0.046781
1.046224 0.185810 0.065120
1.094081 0.255190 0.075105
1.130228 0.310631 0.072944
1.153257 0.370269 0.065331
1.163141 0.454350 0.078831
1.161033 0.558021 0.127454
1.150768 0.658103 0.195961
1.136406 0.741753 0.276695
1.121429 0.808116 0.366900
1.106180 0.859675 0.462876
1.091792 0.899106 0.559853
1.077924 0.928845 0.651185
1.066184 0.951668 0.728400
1.055867 0.968433 0.790817
1.047840 0.981310 0.842141
-0.000000 0.000407 -0.000000
0.000003 0.000413 -0.000000
0.000441 0.000430 -0.000000
0.002486 0.000409 -0.000000
0.010516 0.000118 -0.000000
0.032479 0.000012 -0.000000
0.071682 0.000000 -0.000000
0.109847 0.000000 -0.000000
0.156124 0.000000 -0.000000
0.214703 0.000001 -0.000000
0.287496 0.000002 0.000054
0.370843 0.000002 0.000263
0.467354 0.000005 0.000841
0.575789 0.000007 0.002292
0.692236 0.000011 0.005766
0.805838 0.000017 0.013122
0.905010 0.004134 0.026639
0.984384 0.094985 0.046626
1.046224 0.188964 0.064945
1.094081 0.257559 0.074822
1.129863 0.312634 0.072590
1.153257 0.371892 0.064874
1.162790 0.455835 0.078528
1.160681 0.558938 0.127337
1.150412 0.658846 0.195961
1.136044 0.742388 0.276763
1.121429 0.808401 0.366996
1.106180 0.859675 0.462876
1.091792 0.899106 0.559853
1.077924 0.928845 0.651185
1.066184 0.951668 0.728400
1.055867 0.968433 0.790817
1.047840 0.981310 0.842141
-0.000000 0.002233 -0.000000
0.000000 0.002249 -0.000000
0.000393 0.002298 -0.000000
0.002413 0.002375 -0.000000
0.008952 0.002380 -0.000000
0.029596 0.001916 -0.000000
0.069270 0.000393 -0.000000
0.109486 0.000014 -0.000000
0.157141 0.000000 -0.000000
0.216237 0.000001 -0.000000
0.289046 0.000002 0.000008
0.372368 0.000002 0.000190
0.468643 0.000005 0.000761
0.576890 0.000007 0.002204
0.692931 0.000011 0.005665
0.806693 0.000017 0.012987
0.905010 0.015340 0.026467
0.984165 0.106740 0.046359
1.046224 0.195661 0.064521
1.093700 0.262585 0.074222
1.129863 0.316826 0.071747
1.152902 0.375583 0.063882
1.162439 0.458785 0.077829
1.160329 0.560766 0.127062
1.150056 0.660142 0.195961
1.136044 0.743023 0.276830
1.121429 0.808685 0.367093
1.106180 0.859937 0.463022
1.091792 0.899353 0.559853
1.077924 0.929081 0.651374
1.066184 0.951668 0.728400
1.055867 0.968433 0.790817
1.047840 0.981310 0.842141
-0.000000 0.008526 -0.000000
-0.000000 0.008563 -0.000000
0.000048 0.008656 -0.000000
0.002435 0.008859 -0.000000
0.009223 0.009124 -0.000000
0.027107 0.009377 -0.000000
0.064909 0.008600 -0.000000
0.108623 0.007146 -0.000000
0.158842 0.004664 -0.000000
0.219090 0.001113 -0.000000
0.291991 0.000002 0.000001
0.374924 0.000002 0.000057
0.470926 0.000005 0.000558
0.578866 0.000008 0.001991
0.694319 0.000012 0.005440
0.807548 0.000017 0.012728
0.905255 0.036373 0.026072
0.984165 0.125919 0.045800
1.045820 0.207506 0.063704
1.093318 0.271625 0.073105
1.129133 0.324569 0.070136
1.152191 0.382284 0.061972
1.162087 0.464182 0.076477
1.159624 0.564853 0.126551
1.148986 0.662725 0.195961
1.135681 0.744924 0.277034
1.121060 0.809820 0.367383
1.105804 0.860723 0.463312
1.091410 0.899600 0.560082
1.077924 0.929318 0.651562
1.066184 0.951897 0.728563
1.055867 0.968657 0.791109
1.047436 0.981310 0.842141
-0.000000 0.026269 -0.000000
-0.000000 0.026294 -0.000000
-0.000000 0.026467 -0.000000
0.001157 0.026787 -0.000000
0.009512 0.027280 -0.000000
0.028167 0.027945 -0.000000
0.063775 0.028290 -0.000000
0.108987 0.027797 -0.000000
0.162005 0.026195 -0.000000
0.223987 0.022980 -0.000000
0.296656 0.017570 -0.000000
0.379509 0.008194 0.000006
0.475027 0.001623 0.000225
0.582356 0.000008 0.001509
0.696912 0.000012 0.004944
0.808685 0.004987 0.012180
0.905745 0.069804 0.025382
0.983727 0.153226 0.044738
1.044605 0.226049 0.062336
1.092556 0.286066 0.071093
1.128037 0.336860 0.067442
1.150768 0.392875 0.058776
1.160681 0.472911 0.074190
1.158566 0.570912 0.125721
1.147915 0.666940 0.195861
1.134956 0.747448 0.277304
1.120322 0.811236 0.367770
1.105429 0.861507 0.463892
1.091410 0.900094 0.560538
1.077536 0.929554 0.651750
1.066184 0.951897 0.728563
1.055867 0.968657 0.791109
1.047436 0.981310 0.842141
-0.000000 0.063274 -0.000000
-0.000000 0.063310 -0.000000
-0.000000 0.063489 -0.000000
0.000170 0.063847 -0.000000
0.007066 0.064415 -0.000000
0.028709 0.065296 -0.000000
0.066479 0.066272 -0.000000
0.112523 0.067065 -0.000000
0.167494 0.067305 -0.000000
0.231613 0.066756 -0.000000
0.304285 0.064167 -0.000000
0.386854 0.058510 -0.000000
0.481443 0.050852 0.000031
0.587542 0.043659 0.000761
0.700692 0.045800 0.003894
0.810670 0.071060 0.011071
0.906478 0.124005 0.024015
0.983288 0.189173 0.042844
1.043795 0.252493 0.059905
1.091028 0.307657 0.067749
1.126573 0.355454 0.062842
1.148629 0.409365 0.053408
1.158566 0.486117 0.070599
1.156092 0.580614 0.124446
1.146485 0.673650 0.195861
1.133504 0.751213 0.277844
1.119584 0.813776 0.368444
1.105053 0.862813 0.464471
1.091028 0.900833 0.560766
1.077536 0.930027 0.651938
1.065789 0.952126 0.728888
1.055867 0.968657 0.791109
1.047436 0.981530 0.842410
-0.000001 0.112919 -0.000000
-0.000001 0.112963 -0.000000
-0.000001 0.113182 -0.000000
-0.000001 0.113489 -0.000000
0.001420 0.113969 -0.000000
0.024101 0.114794 -0.000000
0.067920 0.115914 -0.000000
0.117321 0.117193 -0.000000
0.174794 0.118376 -0.000000
0.241598 0.119297 -0.000000
0.315087 0.118586 -0.000000
0.397472 0.117024 -0.000000
0.491276 0.115484 -0.000000
0.595636 0.115570 0.000132
0.706313 0.122346 0.002255
0.813776 0.143129 0.008908
0.907211 0.182163 0.021538
0.982629 0.233929 0.039527
1.042171 0.288272 0.055804
1.089114 0.337611 0.062263
1.123637 0.381915 0.055331
1.146127 0.432742 0.044532
1.155384 0.505446 0.064945
1.153612 0.595002 0.122671
1.144335 0.683114 0.195861
1.131686 0.757435 0.278652
1.118105 0.817148 0.369502
1.104301 0.865156 0.465338
1.090263 0.902556 0.561450
1.077147 0.930736 0.652501
1.065789 0.952584 0.729213
1.055867 0.968881 0.791401
1.047436 0.981750 0.842410
-0.000002 0.175698 -0.000000
-0.000002 0.175698 -0.000000
-0.000002 0.175867 -0.000000
-0.000002 0.176148 -0.000000
-0.000002 0.176541 -0.000000
0.009851 0.177324 -0.000000
0.062336 0.178381 -0.000000
0.119713 0.179761 -0.000000
0.181021 0.180912 -0.000000
0.249992 0.181348 -0.000000
0.326582 0.181293 -0.000000
0.411390 0.181457 -0.000000
0.504664 0.182704 -0.000000
0.606900 0.186445 -0.000000
0.714387 0.195661 0.000465
0.817987 0.214341 0.005323
0.908187 0.245913 0.017041
0.981310 0.288143 0.033712
1.039729 0.334055 0.048834
1.085658 0.377178 0.053002
1.119953 0.417227 0.042563
1.141460 0.464616 0.029941
1.151124 0.532009 0.056275
1.149699 0.614669 0.120211
1.140740 0.696222 0.196162
1.129498 0.765426 0.279993
1.116624 0.822170 0.371034
1.103172 0.868009 0.466635
1.089497 0.904275 0.562814
1.076758 0.931915 0.653252
1.065395 0.953271 0.729538
1.055867 0.969329 0.791693
1.047436 0.981970 0.842679
-0.000003 0.250753 -0.000000
-0.000003 0.250829 -0.000000
-0.000003 0.250905 -0.000000
-0.000003 0.251132 -0.000000
-0.000003 0.251435 -0.000000
0.001561 0.251889 -0.000000
0.043287 0.252493 -0.000000
0.113795 0.253396 -0.000000
0.182109 0.254369 -0.000000
0.255264 0.255041 -0.000000
0.336538 0.255636 -0.000000
0.425396 0.256600 -0.000000
0.520136 0.258735 -0.000000
0.621315 0.263950 -0.000000
0.724807 0.273899 -0.000001
0.823281 0.290971 0.001203
0.909162 0.317633 0.009407
0.979547 0.352217 0.024113
1.036052 0.390193 0.036299
1.081027 0.427006 0.036595
1.114025 0.462586 0.021464
1.135319 0.505446 0.009524
1.145052 0.566206 0.043264
1.143976 0.640531 0.117321
1.136406 0.713384 0.196960
1.125840 0.776612 0.281990
1.114397 0.829356 0.373317
1.101286 0.872395 0.468787
1.088731 0.906967 0.564400
1.075979 0.933563 0.654376
1.065000 0.954185 0.730350
1.055468 0.970223 0.791985
1.047032 0.982189 0.842948
-0.000006 0.337718 -0.000000
-0.000006 0.337825 -0.000000
-0.000006 0.337825 -0.000000
-0.000006 0.337932 -0.000000
-0.000006 0.338252 -0.000000
-0.000006 0.338573 -0.000000
0.011108 0.339106 -0.000000
0.096569 0.339850 -0.000000
0.177268 0.340804 -0.000000
0.257191 0.341861 -0.000000
0.343019 0.343019 -0.000000
0.436202 0.344172 -0.000000
0.535167 0.346671 -0.000000
0.636476 0.351912 -0.000000
0.736642 0.361133 -0.000001
0.829081 0.376053 -0.000001
0.909405 0.397823 0.002162
0.976230 0.425880 0.009469
1.030709 0.456574 0.016227
1.074030 0.487073 0.013332
1.106180 0.517745 0.004617
1.127305 0.555259 0.000967
1.136406 0.608546 0.032233
1.136406 0.672387 0.114707
1.130593 0.735035 0.198843
1.121797 0.790524 0.285283
1.111045 0.838359 0.376616
1.099017 0.878282 0.471636
1.087196 0.910378 0.566431
1.075200 0.935441 0.655870
1.064605 0.955326 0.731323
1.055068 0.970669 0.792569
1.047032 0.982409 0.843217
-0.000012 0.437295 -0.000000
-0.000012 0.437295 -0.000000
-0.000012 0.437451 -0.000000
-0.000012 0.437451 -0.000000
-0.000012 0.437763 -0.000000
-0.000012 0.438074 -0.000000
-0.000012 0.438541 -0.000000
0.065261 0.439162 -0.000000
0.165105 0.439937 -0.000000
0.255413 0.440865 -0.000000
0.346567 0.442252 -0.000000
0.443480 0.443940 -0.000000
0.545921 0.446381 -0.000000
0.648732 0.450463 -0.000001
0.746818 0.457755 -0.000001
0.834010 0.469358 -0.000001
0.908187 0.486527 -0.000002
0.970893 0.508039 0.001452
1.022418 0.531765 0.003103
1.064210 0.555720 0.001824
1.095603 0.581050 -0.000002
1.115511 0.613654 -0.000002
1.125106 0.657732 0.028339
1.126939 0.709523 0.114187
1.123270 0.760521 0.202744
1.116253 0.808116 0.290203
1.106930 0.849904 0.381454
1.096363 0.885631 0.475870
1.084888 0.914981 0.569573
1.074030 0.938483 0.658103
1.063815 0.957148 0.732617
1.054669 0.971785 0.793443
1.046628 0.983068 0.843486
-0.000019 0.547099 -0.000000
-0.000019 0.547099 -0.000000
-0.000019 0.547099 -0.000000
-0.000019 0.547099 -0.000000
-0.000019 0.547334 -0.000000
-0.000019 0.547334 -0.000000
-0.000019 0.547804 -0.000000
0.018803 0.548274 -0.000000
0.149070 0.548743 -0.000000
0.252342 0.549446 -0.000000
0.349560 0.550381 -0.000000
0.448956 0.551548 -0.000000
0.552013 0.553407 -0.000001
0.655497 0.555720 -0.000001
0.751839 0.560082 -0.000001
0.835100 0.568005 -0.000001
0.904765 0.579741 -0.000002
0.963264 0.595213 -0.000002
1.011925 0.612229 -0.000002
1.051462 0.630428 -0.000002
1.081800 0.650620 -0.000002
1.101286 0.676167 -0.000002
1.112164 0.710365 0.029744
1.115511 0.749648 0.118670
1.114397 0.789939 0.209936
1.109177 0.828531 0.297778
1.101663 0.864116 0.388302
1.092556 0.894644 0.481443
1.082573 0.920751 0.574022
1.072467 0.942208 0.660881
1.062628 0.959192 0.734391
1.053468 0.973121 0.794607
1.046224 0.984165 0.844292
-0.000028 0.657732 -0.000000
-0.000028 0.657732 -0.000000
-0.000028 0.657732 -0.000000
-0.000028 0.657732 -0.000000
-0.000028 0.657918 -0.000000
-0.000028 0.657918 -0.000000
-0.000028 0.657918 -0.000000
-0.000028 0.658103 -0.000000
0.141728 0.658289 -0.000000
0.253546 0.658475 -0.000000
0.354648 0.658660 -0.000000
0.454945 0.658846 -0.000001
0.555951 0.659216 -0.000001
0.656988 0.659957 -0.000001
0.750901 0.661988 -0.000001
0.831276 0.666027 -0.000002
0.898364 0.672568 -0.000002
0.953728 0.681873 -0.000002
0.999571 0.692758 -0.000002
1.037279 0.704956 -0.000002
1.065789 0.719538 -0.000002
1.085658 0.738244 -0.000002
1.097502 0.762672 0.037728
1.103548 0.791401 0.131499
1.104301 0.821336 0.222078
1.101286 0.851498 0.308850
1.095983 0.879809 0.397998
1.088347 0.905745 0.489383
1.079477 0.928134 0.579741
1.069724 0.946608 0.664929
1.060645 0.962135 0.736963
1.052666 0.974900 0.796058
1.045820 0.985042 0.845096
-0.000040 0.756196 -0.000001
-0.000039 0.756196 -0.000001
-0.000040 0.756196 -0.000001
-0.000040 0.756196 -0.000001
-0.000040 0.756196 -0.000001
-0.000040 0.756196 -0.000001
-0.000040 0.756196 -0.000001
0.015069 0.755886 -0.000001
0.158905 0.755576 -0.000001
0.268698 0.755265 -0.000001
0.367866 0.754955 -0.000001
0.465194 0.754022 -0.000001
0.562814 0.753399 -0.000001
0.658475 0.752463 -0.000001
0.746818 0.752463 -0.000002
0.824390 0.753399 -0.000002
0.889401 0.755886 -0.000002
0.943137 0.760214 -0.000002
0.986791 0.766036 -0.000002
1.022001 0.773609 -0.000002
1.049452 0.783164 -0.000002
1.068939 0.796058 0.001553
1.082573 0.812648 0.057516
1.089880 0.832371 0.155549
1.092937 0.853883 0.241121
1.092174 0.875984 0.325017
1.088731 0.897870 0.411390
1.082960 0.918112 0.500076
1.075590 0.936144 0.587972
1.067366 0.952126 0.670215
1.059454 0.965741 0.740160
1.051864 0.976895 0.798085
1.044605 0.986136 0.846168
-0.000050 0.836732 -0.000001
-0.000050 0.836732 -0.000001
-0.000050 0.836732 -0.000001
-0.000050 0.836732 -0.000001
-0.000050 0.836460 -0.000001
-0.000051 0.836460 -0.000001
-0.000050 0.836188 -0.000001
0.084887 0.835372 -0.000001
0.199040 0.834827 -0.000001
0.296781 0.834282 -0.000001
0.388934 0.833191 -0.000001
0.481028 0.831824 -0.000001
0.573357 0.830179 -0.000001
0.661988 0.828256 -0.000002
0.743657 0.826602 -0.000002
0.816587 0.825773 -0.000002
0.879554 0.825773 -0.000002
0.932151 0.826878 -0.000002
0.974233 0.829081 -0.000002
1.007688 0.833464 -0.000002
1.033591 0.839442 -0.000002
1.053067 0.847504 0.026664
1.066972 0.858100 0.108942
1.075979 0.870850 0.191653
1.081027 0.885127 0.268768
1.082573 0.900833 0.347499
1.081027 0.916669 0.429567
1.076758 0.931915 0.514323
1.071292 0.945684 0.598372
1.064605 0.958512 0.677062
1.057463 0.969552 0.744607
1.050256 0.979547 0.800968
1.043795 0.987665 0.848038
-0.000059 0.898612 -0.000001
-0.000059 0.898612 -0.000001
-0.000059 0.898612 -0.000001
-0.000059 0.898364 -0.000001
-0.000059 0.898364 -0.000001
0.007504 0.898117 -0.000001
0.075074 0.897622 -0.000001
0.163775 0.897127 -0.000001
0.248998 0.896631 -0.000001
0.332097 0.895390 -0.000001
0.415736 0.894147 -0.000001
0.501524 0.892402 -0.000001
0.586467 0.890153 -0.000002
0.667488 0.887896 -0.000002
0.742706 0.885631 0.005249
0.810670 0.883612 0.017546
0.870592 0.882093 0.033416
0.920751 0.881586 0.048834
0.961909 0.882093 0.060315
0.994399 0.883864 0.070632
1.019076 0.887142 0.085735
1.038505 0.891653 0.120831
1.052666 0.897870 0.177937
1.063024 0.905500 0.239846
1.068939 0.914739 0.306217
1.072467 0.924810 0.377459
1.072467 0.935206 0.453606
1.069724 0.945684 0.532983
1.065789 0.956237 0.612229
1.060645 0.965741 0.686113
1.055068 0.974455 0.750274
1.048646 0.982629 0.804123
1.042983 0.989843 0.850170
0.148601 0.944759 0.041282
0.149271 0.944759 0.041282
0.151722 0.944759 0.041402
0.157078 0.944759 0.041545
0.166423 0.944527 0.041831
0.183082 0.944527 0.042351
0.222426 0.944064 0.043171
0.271971 0.943601 0.044372
0.328690 0.942673 0.046114
0.392162 0.941744 0.048683
0.461566 0.940115 0.052265
0.534440 0.938483 0.057285
0.607724 0.936144 0.064025
0.679384 0.933798 0.072912
0.747133 0.931208 0.087464
0.808969 0.928845 0.106971
0.863595 0.926949 0.128195
0.911107 0.925048 0.148534
0.950521 0.924333 0.166543
0.982189 0.924333 0.182271
1.006837 0.925523 0.198843
1.025330 0.927897 0.221641
1.040137 0.930972 0.255264
1.050659 0.935441 0.299883
1.057862 0.940581 0.354042
1.061835 0.946838 0.416068
1.063815 0.953042 0.484337
1.063419 0.959872 0.556412
1.060248 0.966639 0.629643
1.056666 0.973344 0.697429
1.051462 0.980208 0.757435
1.046628 0.986354 0.808969
1.041765 0.992016 0.853089
0.343962 0.977559 0.156633
0.344485 0.977559 0.156633
0.346360 0.977559 0.156697
0.350687 0.977559 0.156824
0.358257 0.977338 0.157078
0.370556 0.977116 0.157521
0.388573 0.976895 0.158278
0.413737 0.976452 0.159405
0.446989 0.975787 0.160958
0.488026 0.974455 0.163350
0.536013 0.973344 0.166662
0.589258 0.971785 0.171417
0.646077 0.969552 0.177992
0.703935 0.967537 0.186815
0.760521 0.965066 0.198547
0.813776 0.962812 0.213340
0.862291 0.960326 0.231113
0.904765 0.958284 0.250753
0.941511 0.956693 0.270653
0.971785 0.955554 0.289175
0.995911 0.955554 0.305253
1.014457 0.956465 0.321066
1.029058 0.957830 0.341755
1.039729 0.959872 0.371701
1.047840 0.962812 0.412733
1.052666 0.965965 0.463602
1.055468 0.969329 0.522263
1.056267 0.973121 0.586036
1.055068 0.976895 0.650809
1.051864 0.981310 0.711541
1.048243 0.985917 0.766340
1.044200 0.990496 0.814621
1.040137 0.994831 0.856522
0.515594 0.999356 0.279458
0.515848 0.999356 0.279458
0.516734 0.999356 0.279458
0.518754 0.999356 0.279592
0.522388 0.999356 0.279726
0.528581 0.999141 0.280127
0.537580 0.998711 0.280527
0.551081 0.998496 0.281326
0.569349 0.997850 0.282520
0.592883 0.996989 0.284234
0.622313 0.995911 0.286587
0.657174 0.994615 0.289818
0.696740 0.993316 0.294524
0.739203 0.991365 0.300745
0.782868 0.989408 0.309088
0.825773 0.987010 0.320041
0.866455 0.985042 0.333838
0.903293 0.982849 0.350278
0.935675 0.980869 0.368637
0.963715 0.979547 0.387307
0.986791 0.978443 0.404591
1.005134 0.978001 0.419699
1.019494 0.978222 0.434791
1.030297 0.979106 0.454053
1.038505 0.980429 0.482134
1.043795 0.981530 0.520387
1.047436 0.983068 0.567556
1.049049 0.984823 0.620714
1.048646 0.986573 0.675808
1.047436 0.988973 0.728725
1.044605 0.991582 0.777808
1.041765 0.994831 0.821892
1.038505 0.997850 0.860984
0.640146 1.013192 0.395535
0.640338 1.013192 0.395535
0.640723 1.013192 0.395535
0.641875 1.013192 0.395535
0.643789 1.013192 0.395712
0.647027 1.012770 0.396065
0.651938 1.012770 0.396241
0.659216 1.012348 0.396945
0.669489 1.012348 0.397823
0.683114 1.011503 0.398873
0.700863 1.010656 0.400616
0.722672 1.009809 0.402869
0.748706 1.008537 0.406133
0.778107 1.007263 0.410548
0.809820 1.005560 0.416565
0.842679 1.003854 0.424588
0.875217 1.002143 0.434791
0.905745 1.000000 0.447747
0.934033 0.998066 0.463022
0.958512 0.996342 0.480196
0.979988 0.994831 0.497430
0.997204 0.993749 0.513559
1.011503 0.993316 0.527719
1.022001 0.992883 0.541652
1.030297 0.993533 0.559396
1.036052 0.993966 0.584740
1.040137 0.994182 0.619110
1.042171 0.994615 0.660327
1.042983 0.995263 0.704276
1.042577 0.996126 0.748706
1.040951 0.997204 0.791401
1.038913 0.999141 0.830728
1.036052 1.000858 0.866455
0.730512 1.021583 0.504273
0.730512 1.021583 0.504273
0.730837 1.021583 0.504273
0.731323 1.021166 0.504273
0.732293 1.021166 0.504404
0.734230 1.021166 0.504534
0.736963 1.021166 0.504795
0.741116 1.021166 0.505185
0.747133 1.020748 0.505836
0.754955 1.020331 0.506615
0.765731 1.019912 0.507780
0.779599 1.019076 0.509458
0.796348 1.018238 0.511770
0.816026 1.017399 0.515086
0.838359 1.016140 0.519257
0.862291 1.014457 0.525000
0.887142 1.012770 0.532496
0.911835 1.011080 0.542128
0.935206 1.009386 0.553871
0.956465 1.007688 0.567780
0.975122 1.005986 0.583225
0.991148 1.004281 0.598582
1.004281 1.003426 0.613044
1.014878 1.002999 0.625496
1.023251 1.002571 0.637638
1.029058 1.002571 0.652877
1.033180 1.002571 0.674550
1.036052 1.002143 0.702913
1.038097 1.002143 0.735678
1.038097 1.002143 0.771498
1.037688 1.002571 0.807263
1.035642 1.002999 0.841332
1.034001 1.004281 0.873422
0.798373 1.025330 0.604627
0.798373 1.025330 0.604627
0.798373 1.025330 0.604627
0.798951 1.025330 0.604627
0.799528 1.025330 0.604627
0.800680 1.025330 0.604834
0.802117 1.025330 0.605041
0.804695 1.025330 0.605248
0.808116 1.024915 0.605662
0.812931 1.024915 0.606075
0.819385 1.024499 0.606900
0.827705 1.023667 0.608135
0.838359 1.023251 0.609777
0.851233 1.022834 0.611821
0.866455 1.022001 0.614669
0.883106 1.020748 0.618506
0.901572 1.019076 0.623709
0.920272 1.017819 0.630428
0.938949 1.016560 0.638797
0.956693 1.014878 0.648921
0.972676 1.013192 0.660881
0.986573 1.011925 0.673830
0.998926 1.010233 0.686641
1.008962 1.009386 0.698290
1.016979 1.008962 0.708343
1.023251 1.008537 0.717882
1.027403 1.008537 0.730025
1.030709 1.008113 0.747448
1.032768 1.007688 0.769986
1.033591 1.007263 0.796928
1.033591 1.007263 0.825497
1.033180 1.006837 0.854147
1.031534 1.007263 0.882093
0.850170 1.026575 0.690668
0.850170 1.026575 0.690668
0.850170 1.026575 0.690668
0.850436 1.026575 0.690668
0.850702 1.026575 0.690668
0.851233 1.026575 0.690668
0.852029 1.026575 0.690843
0.853618 1.026575 0.691017
0.855731 1.026160 0.691540
0.858626 1.026160 0.691714
0.862291 1.026160 0.692236
0.867492 1.025745 0.692931
0.873935 1.025330 0.693799
0.882346 1.024915 0.695185
0.892402 1.024499 0.696912
0.903784 1.023667 0.699492
0.916909 1.022834 0.702572
0.930500 1.021583 0.706652
0.944759 1.020331 0.712044
0.958965 1.019076 0.718711
0.972231 1.017819 0.727096
0.984384 1.016560 0.736321
0.995047 1.015298 0.746818
1.004281 1.014035 0.757126
1.011925 1.013192 0.766340
1.017819 1.012770 0.774211
1.022834 1.012348 0.782275
1.025745 1.011925 0.791693
1.028645 1.011925 0.805552
1.029884 1.011503 0.823836
1.030709 1.010656 0.845632
1.030297 1.010233 0.868527
1.029884 1.009809 0.891903
0.889652 1.026989 0.759906
0.889652 1.026989 0.759906
0.889652 1.026989 0.759906
0.889902 1.026989 0.759906
0.889902 1.026989 0.759906
0.890153 1.026989 0.759906
0.891153 1.026989 0.760214
0.891903 1.026575 0.760214
0.892901 1.026575 0.760521
0.894644 1.026575 0.760521
0.896879 1.026160 0.760829
0.900094 1.026160 0.761444
0.904030 1.025745 0.761751
0.909162 1.025330 0.762672
0.915463 1.024915 0.763897
0.923141 1.024499 0.765426
0.932151 1.024083 0.767254
0.941744 1.023251 0.769683
0.952355 1.022418 0.773007
0.963038 1.021583 0.777509
0.973566 1.020331 0.782868
0.983727 1.019076 0.789353
0.993316 1.018238 0.796928
1.000858 1.017399 0.804981
1.008113 1.016560 0.813494
1.013614 1.015719 0.820779
1.018238 1.014878 0.827154
1.022001 1.014457 0.833191
1.024499 1.014457 0.841063
1.026160 1.014035 0.852294
1.026989 1.013192 0.867233
1.027403 1.012770 0.884117
1.027403 1.012348 0.903048
0.920032 1.025745 0.815745
0.920032 1.025745 0.815745
0.920032 1.025745 0.815745
0.920032 1.025745 0.815745
0.920272 1.025745 0.815745
0.920511 1.025745 0.815745
0.920751 1.025745 0.815745
0.921230 1.025745 0.815745
0.922186 1.025745 0.815745
0.923141 1.025745 0.816026
0.924333 1.025745 0.816306
0.925999 1.025745 0.816587
0.928608 1.025330 0.816867
0.931915 1.025330 0.817148
0.935675 1.024915 0.817708
0.940581 1.024499 0.819106
0.946608 1.024083 0.820222
0.953271 1.023667 0.821614
0.960778 1.023251 0.823559
0.968433 1.022418 0.826326
0.976673 1.021583 0.829630
0.984823 1.020748 0.834010
0.992450 1.019912 0.839171
0.999571 1.019076 0.845364
1.005560 1.018238 0.851764
1.010656 1.017399 0.858626
1.014878 1.016979 0.864636
1.018657 1.016140 0.869560
1.021166 1.016140 0.874192
1.023251 1.015719 0.880825
1.024499 1.015298 0.889401
1.024915 1.014457 0.901326
1.025330 1.014457 0.915222
0.943369 1.024499 0.860199
0.943369 1.024499 0.860199
0.943601 1.024499 0.860199
0.943601 1.024499 0.860199
0.943601 1.024499 0.860199
0.943832 1.024499 0.860199
0.943832 1.024499 0.860199
0.944064 1.024499 0.860199
0.944527 1.024499 0.860461
0.944990 1.024499 0.860461
0.945915 1.024499 0.860723
0.947069 1.024499 0.860723
0.948452 1.024499 0.860984
0.950062 1.024499 0.861246
0.952813 1.024499 0.861507
0.956010 1.024083 0.862030
0.959419 1.023667 0.862813
